X:01
T: Come Have a Drink With Me
M: 6/8
L: 1/8
S:Mary McNamara
R: jig
Z: Contributed 2016-10-31 16:49:19 by kelley maggs kelley.maggs@pinnaclefoods.com
K: Gmaj
|: BAG EGD | EGD EGD | BAG EGD |
|EAA AGA | BAG EGD | EGD EGD |
| BAG EGD |1 EGG G2A:|2 EGG G3||
|:c2d efg | ded BAG | c2d efg |
def gdB |c2d efg | ded BAG |
BAG EGD |1 EGG G3 :|2 EGG G2A :||
